X:1
T: The Chace
C:
R:Reel
Q: 232
K:C
M:4/4
L:1/8
|:c2 ec Gc EG|c2 ec GE DC|c2 ec B2 dB|Ac BA G2 G2|
c2 ec Gc EG|c2 ec GE DC|c2 ec B2 dB|Ac BA G2 G2|
G2 cG eG FE|F2 BF dF ED|EF GE cE DC|G,2 B,2 CD EF|
G2 cG eG FE|F2 BF dF ED|EF GE cE DC|G,C B,D C2 C2:|
